%
(Axiom_i2R_TestCut_in)
(T1 D=0.25 CR=0 - ZMIN=-0.27 - flat end mill)
N10 G90 G94
N15 G17
N20 G20
N25 G28 G91 Z0
N30 G90

(2D Adaptive2)
N35 M9
N40 T1 M6
N45 S20000 M3
N50 G54
N55 G0 X-1.1282 Y-0.5883
N60 G43 Z0.6 H1
N65 Z0.2
N70 Z0.102
N75 G3 X-1.0877 Y-0.3543 Z0.089 I0.0203 J0.117 F14
N80 X-1.1282 Y-0.5883 Z0.0759 I-0.0203 J-0.117
N85 X-1.0877 Y-0.3543 Z0.0629 I0.0203 J0.117
N90 X-1.1282 Y-0.5883 Z0.0499 I-0.0203 J-0.117
N95 X-1.0877 Y-0.3543 Z0.0369 I0.0203 J0.117
N100 X-1.1282 Y-0.5883 Z0.0238 I-0.0203 J-0.117
N105 X-1.0877 Y-0.3543 Z0.0108 I0.0203 J0.117
N110 X-1.1282 Y-0.5883 Z-0.0022 I-0.0203 J-0.117
N115 X-1.0877 Y-0.3543 Z-0.0152 I0.0203 J0.117
N120 X-1.1282 Y-0.5883 Z-0.0283 I-0.0203 J-0.117
N125 X-1.0877 Y-0.3543 Z-0.0413 I0.0203 J0.117
N130 X-1.1282 Y-0.5883 Z-0.0543 I-0.0203 J-0.117
N135 X-1.0877 Y-0.3543 Z-0.0674 I0.0203 J0.117
N140 X-1.1282 Y-0.5883 Z-0.0804 I-0.0203 J-0.117
N145 X-1.0877 Y-0.3543 Z-0.0934 I0.0203 J0.117
N150 X-1.1282 Y-0.5883 Z-0.1064 I-0.0203 J-0.117
N155 X-1.0877 Y-0.3543 Z-0.1195 I0.0203 J0.117
N160 X-1.1282 Y-0.5883 Z-0.1325 I-0.0203 J-0.117
N165 X-1.0877 Y-0.3543 Z-0.1455 I0.0203 J0.117
N170 X-1.1282 Y-0.5883 Z-0.1586 I-0.0203 J-0.117
N175 X-1.0877 Y-0.3543 Z-0.1716 I0.0203 J0.117
N180 X-1.1282 Y-0.5883 Z-0.1846 I-0.0203 J-0.117
N185 X-1.0877 Y-0.3543 Z-0.1976 I0.0203 J0.117
N190 X-1.1282 Y-0.5883 Z-0.2107 I-0.0203 J-0.117
N195 X-1.0877 Y-0.3543 Z-0.2237 I0.0203 J0.117
N200 X-1.1282 Y-0.5883 Z-0.2367 I-0.0203 J-0.117
N205 X-1.0877 Y-0.3543 Z-0.2497 I0.0203 J0.117
N210 X-1.1282 Y-0.5883 Z-0.2628 I-0.0203 J-0.117
N215 X-0.9892 Y-0.4713 Z-0.27 I0.0203 J0.117
N220 X-1.2267 I-0.1187
N225 X-0.9892 I0.1187
N230 G1 X-0.989 Y-0.4615 F65
N235 X-0.9819 Y-0.4232
N240 X-0.9802 Y-0.4175
N245 X-0.979 Y-0.4116
N250 X-0.9785 Y-0.4056
N255 Y-0.3995
N260 X-0.9789 Y-0.393
N265 X-0.98 Y-0.3861
N270 X-0.9818 Y-0.3789
N275 X-0.9842 Y-0.3714
N280 X-0.9874 Y-0.3637
N285 X-0.9915 Y-0.3559
N290 X-0.9964 Y-0.348
N295 X-1.0021 Y-0.3403
N300 X-1.0088 Y-0.3326
N305 X-1.0163 Y-0.3253
N310 X-1.0247 Y-0.3184
N315 X-1.0339 Y-0.3119
N320 X-1.0439 Y-0.306
N325 X-1.0547 Y-0.3008
N330 X-1.0661 Y-0.2963
N335 X-1.0781 Y-0.2927
N340 X-1.0907 Y-0.2901
N345 X-1.1037 Y-0.2884
N350 X-1.117 Y-0.2877
N355 X-1.1305 Y-0.2881
N360 X-1.1441 Y-0.2896
N365 X-1.1578 Y-0.2923
N370 X-1.1713 Y-0.2961
N375 X-1.1846 Y-0.301
N380 X-1.1976 Y-0.307
N385 X-1.2102 Y-0.314
N390 X-1.2222 Y-0.3222
N395 X-1.2337 Y-0.3313
N400 X-1.2444 Y-0.3413
N405 X-1.2543 Y-0.3523
N410 X-1.2634 Y-0.364
N415 X-1.2715 Y-0.3765
N420 X-1.2786 Y-0.3897
N425 X-1.2846 Y-0.4034
N430 X-1.2895 Y-0.4175
N435 X-1.2933 Y-0.4321
N440 X-1.296 Y-0.447
N445 X-1.2974 Y-0.462
N450 X-1.2976 Y-0.4771
N455 X-1.2966 Y-0.4922
N460 X-1.2943 Y-0.5072
N465 X-1.2909 Y-0.522
N470 X-1.2863 Y-0.5365
N475 X-1.2806 Y-0.5505
N480 X-1.2737 Y-0.5641
N485 X-1.2658 Y-0.5771
N490 X-1.2568 Y-0.5894
N495 X-1.2469 Y-0.6009
N500 X-1.2361 Y-0.6117
N505 X-1.2244 Y-0.6215
N510 X-1.212 Y-0.6303
N515 X-1.1989 Y-0.6382
N520 X-1.1852 Y-0.6449
N525 X-1.1711 Y-0.6506
N530 X-1.1565 Y-0.6551
N535 X-1.1416 Y-0.6584
N540 X-1.1265 Y-0.6605
N545 X-1.1112 Y-0.6614
N550 X-1.096 Y-0.661
N555 X-1.0808 Y-0.6595
N560 X-1.0658 Y-0.6567
N565 X-1.0511 Y-0.6527
N570 X-1.0367 Y-0.6476
N575 X-1.0228 Y-0.6413
N580 X-1.0094 Y-0.6339
N585 X-0.9967 Y-0.6255
N590 X-0.9847 Y-0.616
N595 X-0.9734 Y-0.6057
N600 X-0.9631 Y-0.5944
N605 X-0.9537 Y-0.5824
N610 X-0.9452 Y-0.5697
N615 X-0.9307 Y-0.5433
N620 X-0.9183 Y-0.5157
N625 X-0.9104 Y-0.4937
N630 X-0.9051 Y-0.4738
N635 X-0.9016 Y-0.4553
N640 X-0.8998 Y-0.4373
N645 X-0.8994 Y-0.4199
N650 X-0.9004 Y-0.4031
N655 X-0.9027 Y-0.3866
N660 X-0.9063 Y-0.3705
N665 X-0.9112 Y-0.3548
N670 X-0.9173 Y-0.3395
N675 X-0.9246 Y-0.3247
N680 X-0.9332 Y-0.3104
N685 X-0.943 Y-0.2967
N690 X-0.9539 Y-0.2837
N695 X-0.966 Y-0.2716
N700 X-0.9792 Y-0.2603
N705 X-0.9935 Y-0.2499
N710 X-1.0087 Y-0.2406
N715 X-1.0249 Y-0.2324
N720 X-1.0419 Y-0.2255
N725 X-1.0596 Y-0.2199
N730 X-1.078 Y-0.2156
N735 X-1.0968 Y-0.2129
N740 X-1.1161 Y-0.2116
N745 X-1.1356 Y-0.2119
N750 X-1.1552 Y-0.2137
N755 X-1.1747 Y-0.2172
N760 X-1.1941 Y-0.2222
N765 X-1.2131 Y-0.2289
N770 X-1.2317 Y-0.2371
N775 X-1.2497 Y-0.2468
N780 X-1.2669 Y-0.258
N785 X-1.2833 Y-0.2707
N790 X-1.2987 Y-0.2846
N795 X-1.3129 Y-0.2999
N800 X-1.326 Y-0.3163
N805 X-1.3377 Y-0.3337
N810 X-1.3481 Y-0.3521
N815 X-1.3569 Y-0.3714
N820 X-1.3643 Y-0.3913
N825 X-1.37 Y-0.4118
N830 X-1.374 Y-0.4327
N835 X-1.3763 Y-0.454
N840 X-1.377 Y-0.4754
N845 X-1.3759 Y-0.4968
N850 X-1.3731 Y-0.5181
N855 X-1.3686 Y-0.5391
N860 X-1.3624 Y-0.5597
N865 X-1.3546 Y-0.5798
N870 X-1.3452 Y-0.5992
N875 X-1.3342 Y-0.6178
N880 X-1.3218 Y-0.6354
N885 X-1.308 Y-0.6521
N890 X-1.2929 Y-0.6675
N895 X-1.2766 Y-0.6817
N900 X-1.2592 Y-0.6946
N905 X-1.2409 Y-0.706
N910 X-1.2216 Y-0.7159
N915 X-1.2017 Y-0.7243
N920 X-1.1811 Y-0.731
N925 X-1.16 Y-0.736
N930 X-1.1386 Y-0.7393
N935 X-1.117 Y-0.7409
N940 X-1.0954 Y-0.7408
N945 X-1.0738 Y-0.7389
N950 X-1.0524 Y-0.7353
N955 X-1.0314 Y-0.73
N960 X-1.0109 Y-0.7231
N965 X-0.991 Y-0.7145
N970 X-0.9719 Y-0.7043
N975 X-0.9536 Y-0.6927
N980 X-0.9364 Y-0.6796
N985 X-0.918 Y-0.6632
N990 X-0.8997 Y-0.644
N995 X-0.8826 Y-0.6228
N1000 X-0.8668 Y-0.5998
N1005 X-0.8531 Y-0.5758
N1010 X-0.8416 Y-0.5513
N1015 X-0.8323 Y-0.5266
N1020 X-0.8252 Y-0.5019
N1025 X-0.8202 Y-0.4772
N1030 X-0.8173 Y-0.4526
N1035 X-0.8163 Y-0.4282
N1040 X-0.8174 Y-0.4041
N1045 X-0.8203 Y-0.3803
N1050 X-0.8251 Y-0.357
N1055 X-0.8317 Y-0.3342
N1060 X-0.8401 Y-0.312
N1065 X-0.8503 Y-0.2907
N1070 X-0.8622 Y-0.2701
N1075 X-0.8757 Y-0.2505
N1080 X-0.8909 Y-0.232
N1085 X-0.9075 Y-0.2146
N1090 X-0.9257 Y-0.1985
N1095 X-0.9452 Y-0.1838
N1100 X-0.966 Y-0.1707
N1105 X-0.988 Y-0.1591
N1110 X-1.0111 Y-0.1492
N1115 X-1.035 Y-0.1412
N1120 X-1.0597 Y-0.1351
N1125 X-1.0851 Y-0.1309
N1130 X-1.1108 Y-0.1288
N1135 X-1.1369 Y-0.1287
N1140 X-1.163 Y-0.1308
N1145 X-1.1891 Y-0.135
N1150 X-1.2149 Y-0.1412
N1155 X-1.2403 Y-0.1496
N1160 X-1.265 Y-0.1601
N1165 X-1.289 Y-0.1726
N1170 X-1.312 Y-0.187
N1175 X-1.3339 Y-0.2033
N1180 X-1.3545 Y-0.2214
N1185 X-1.3736 Y-0.2412
N1190 X-1.3912 Y-0.2625
N1195 X-1.4071 Y-0.2852
N1200 X-1.4211 Y-0.3092
N1205 X-1.4332 Y-0.3344
N1210 X-1.4432 Y-0.3605
N1215 X-1.4512 Y-0.3873
N1220 X-1.4569 Y-0.4148
N1225 X-1.4605 Y-0.4427
N1230 X-1.4618 Y-0.4708
N1235 X-1.4608 Y-0.499
N1240 X-1.4576 Y-0.5271
N1245 X-1.4521 Y-0.5548
N1250 X-1.4445 Y-0.5821
N1255 X-1.4346 Y-0.6086
N1260 X-1.4226 Y-0.6343
N1265 X-1.4086 Y-0.659
N1270 X-1.3927 Y-0.6825
N1275 X-1.3749 Y-0.7046
N1280 X-1.3554 Y-0.7253
N1285 X-1.3343 Y-0.7443
N1290 X-1.3117 Y-0.7616
N1295 X-1.2878 Y-0.777
N1300 X-1.2627 Y-0.7905
N1305 X-1.2366 Y-0.8019
N1310 X-1.2097 Y-0.8111
N1315 X-1.1822 Y-0.8182
N1320 X-1.1541 Y-0.8231
N1325 X-1.1257 Y-0.8257
N1330 X-1.0973 Y-0.8259
N1335 X-1.0688 Y-0.824
N1340 X-1.0407 Y-0.8197
N1345 X-1.0129 Y-0.8132
N1350 X-0.9858 Y-0.8045
N1355 X-0.9595 Y-0.7936
N1360 X-0.9335 Y-0.7803
N1365 X-0.9077 Y-0.7645
N1370 X-0.8826 Y-0.746
N1375 X-0.8583 Y-0.7251
N1380 X-0.8354 Y-0.7018
N1385 X-0.8142 Y-0.6765
N1390 X-0.7951 Y-0.6495
N1395 X-0.7782 Y-0.6211
N1400 X-0.7637 Y-0.5916
N1405 X-0.7517 Y-0.5613
N1410 X-0.7423 Y-0.5305
N1415 X-0.7355 Y-0.4992
N1420 X-0.7312 Y-0.4677
N1425 X-0.7295 Y-0.4362
N1430 X-0.7303 Y-0.4049
N1435 X-0.7336 Y-0.3739
N1440 X-0.7394 Y-0.3434
N1445 X-0.7475 Y-0.3136
N1450 X-0.758 Y-0.2845
N1455 X-0.7708 Y-0.2564
N1460 X-0.7859 Y-0.2294
N1465 X-0.803 Y-0.2036
N1470 X-0.8223 Y-0.1793
N1475 X-0.8435 Y-0.1564
N1480 X-0.8666 Y-0.1352
N1485 X-0.8915 Y-0.1159
N1490 X-0.918 Y-0.0985
N1495 X-0.9459 Y-0.0832
N1500 X-0.9752 Y-0.0701
N1505 X-1.0056 Y-0.0594
N1510 X-1.0369 Y-0.0511
N1515 X-1.069 Y-0.0452
N1520 X-1.1017 Y-0.042
N1525 X-1.1347 Y-0.0414
N1530 X-1.1678 Y-0.0434
N1535 X-1.2008 Y-0.0482
N1540 X-1.2335 Y-0.0556
N1545 X-1.2657 Y-0.0656
N1550 X-1.2971 Y-0.0783
N1555 X-1.3275 Y-0.0935
N1560 X-1.3567 Y-0.1111
N1565 X-1.3845 Y-0.1312
N1570 X-1.4108 Y-0.1534
N1575 X-1.4352 Y-0.1778
N1580 X-1.4576 Y-0.2042
N1585 X-1.478 Y-0.2323
N1590 X-1.496 Y-0.2621
N1595 X-1.5116 Y-0.2933
N1600 X-1.5248 Y-0.3258
N1605 X-1.5352 Y-0.3592
N1610 X-1.543 Y-0.3935
N1615 X-1.548 Y-0.4283
N1620 X-1.5503 Y-0.4634
N1625 X-1.5496 Y-0.4987
N1630 X-1.5462 Y-0.5338
N1635 X-1.5399 Y-0.5686
N1640 X-1.5309 Y-0.6029
N1645 X-1.5191 Y-0.6363
N1650 X-1.5047 Y-0.6686
N1655 X-1.4877 Y-0.6998
N1660 X-1.4682 Y-0.7295
N1665 X-1.4465 Y-0.7575
N1670 X-1.4225 Y-0.7837
N1675 X-1.3965 Y-0.808
N1680 X-1.3686 Y-0.83
N1685 X-1.339 Y-0.8498
N1690 X-1.308 Y-0.8671
N1695 X-1.2756 Y-0.8819
N1700 X-1.2422 Y-0.894
N1705 X-1.2078 Y-0.9035
N1710 X-1.1729 Y-0.9101
N1715 X-1.1375 Y-0.9139
N1720 X-1.1019 Y-0.9149
N1725 X-1.0663 Y-0.9129
N1730 X-1.031 Y-0.9082
N1735 X-0.9961 Y-0.9006
N1740 X-0.9616 Y-0.8901
N1745 X-0.9277 Y-0.8768
N1750 X-0.8946 Y-0.8606
N1755 X-0.8623 Y-0.8414
N1760 X-0.831 Y-0.8193
N1765 X-0.8012 Y-0.7943
N1770 X-0.7734 Y-0.767
N1775 X-0.7478 Y-0.7376
N1780 X-0.7247 Y-0.7062
N1785 X-0.7041 Y-0.6731
N1790 X-0.6861 Y-0.6385
N1795 X-0.6709 Y-0.6025
N1800 X-0.6587 Y-0.5655
N1805 X-0.6494 Y-0.5277
N1810 X-0.6432 Y-0.4892
N1815 X-0.64 Y-0.4506
N1820 Y-0.412
N1825 X-0.6431 Y-0.3736
N1830 X-0.6493 Y-0.3358
N1835 X-0.6584 Y-0.2986
N1840 X-0.6705 Y-0.2623
N1845 X-0.6854 Y-0.2272
N1850 X-0.7031 Y-0.1933
N1855 X-0.7236 Y-0.1609
N1860 X-0.7465 Y-0.1302
N1865 X-0.772 Y-0.1014
N1870 X-0.7998 Y-0.0746
N1875 X-0.8297 Y-0.05
N1880 X-0.8617 Y-0.0278
N1885 X-0.8954 Y-0.0082
N1890 X-0.9306 Y0.0086
N1895 X-0.967 Y0.0226
N1900 X-1.0044 Y0.0336
N1905 X-1.0425 Y0.0416
N1910 X-1.0812 Y0.0467
N1915 X-1.1201 Y0.0487
N1920 X-1.1591 Y0.0476
N1925 X-1.1979 Y0.0436
N1930 X-1.2362 Y0.0366
N1935 X-1.2739 Y0.0266
N1940 X-1.3108 Y0.0139
N1945 X-1.3465 Y-0.0017
N1950 X-1.381 Y-0.0199
N1955 X-1.414 Y-0.0406
N1960 X-1.4454 Y-0.0638
N1965 X-1.4749 Y-0.0893
N1970 X-1.5023 Y-0.117
N1975 X-1.5276 Y-0.1467
N1980 X-1.5507 Y-0.1781
N1985 X-1.5713 Y-0.2112
N1990 X-1.5765 Y-0.2213
N1995 X-1.5828 Y-0.2361
N2000 X-1.5867 Y-0.2517
N2005 X-1.588 Y-0.2677
N2010 Y-0.5007
N2015 X-1.5876 Y-0.5302
N2020 X-1.5856 Y-0.5596
N2025 X-1.5832 Y-0.5891
N2030 X-1.5789 Y-0.6186
N2035 X-1.5725 Y-0.648
N2040 X-1.5652 Y-0.6775
N2045 X-1.5611 Y-0.6886
N2050 X-1.554 Y-0.7069
N2055 X-1.542 Y-0.7364
N2060 X-1.5317 Y-0.7584
N2065 X-1.5271 Y-0.7658
N2070 X-1.509 Y-0.7953
N2075 X-1.5022 Y-0.8062
N2080 X-1.4891 Y-0.8247
N2085 X-1.464 Y-0.8542
N2090 X-1.4433 Y-0.8755
N2095 X-1.4346 Y-0.8837
N2100 X-1.4138 Y-0.9023
N2105 X-1.4004 Y-0.9131
N2110 X-1.3844 Y-0.9258
N2115 X-1.3577 Y-0.9426
N2120 X-1.3549 Y-0.9442
N2125 X-1.3255 Y-0.9605
N2130 X-1.3019 Y-0.972
N2135 X-1.296 Y-0.9745
N2140 X-1.2666 Y-0.9862
N2145 X-1.2371 Y-0.9953
N2150 X-1.2124 Y-1.0015
N2155 X-1.2077 Y-1.0026
N2160 X-1.1782 Y-1.0078
N2165 X-1.1487 Y-1.0112
N2170 X-1.1193 Y-1.0132
N2175 X-1.0898 Y-1.013
N2180 X-1.0604 Y-1.0107
N2185 X-1.0309 Y-1.0068
N2190 X-1.0035 Y-1.0015
N2195 X-0.972 Y-0.9937
N2200 X-0.9426 Y-0.9835
N2205 X-0.9131 Y-0.9716
N2210 X-0.8837 Y-0.9572
N2215 X-0.8582 Y-0.9426
N2220 X-0.8542 Y-0.9401
N2225 X-0.8247 Y-0.9213
N2230 X-0.8147 Y-0.9131
N2235 X-0.7953 Y-0.8966
N2240 X-0.7809 Y-0.8837
N2245 X-0.7658 Y-0.8693
N2250 X-0.752 Y-0.8542
N2255 X-0.7364 Y-0.836
N2260 X-0.7272 Y-0.8247
N2265 X-0.7068 Y-0.7953
N2270 X-0.6888 Y-0.7658
N2275 X-0.6775 Y-0.7449
N2280 X-0.6739 Y-0.7364
N2285 X-0.6619 Y-0.7069
N2290 X-0.6507 Y-0.6775
N2295 X-0.648 Y-0.667
N2300 X-0.6435 Y-0.648
N2305 X-0.6368 Y-0.6186
N2310 X-0.6327 Y-0.5891
N2315 X-0.6304 Y-0.5596
N2320 X-0.6283 Y-0.5302
N2325 X-0.628 Y-0.5007
N2330 Y-0.2356
N2335 X-0.629 Y-0.2154
N2340 X-0.6311 Y-0.1993
N2345 X-0.6352 Y-0.1798
N2350 X-0.6412 Y-0.1598
N2355 X-0.6504 Y-0.1364
N2360 X-0.6616 Y-0.1132
N2365 X-0.6768 Y-0.0873
N2370 X-0.6961 Y-0.0599
N2375 X-0.718 Y-0.0336
N2380 X-0.744 Y-0.0069
N2385 X-0.7734 Y0.0187
N2390 X-0.8047 Y0.042
N2395 X-0.8376 Y0.0629
N2400 X-0.8719 Y0.0814
N2405 X-0.9074 Y0.0975
N2410 X-0.944 Y0.111
N2415 X-0.9814 Y0.1219
N2420 X-1.0195 Y0.1302
N2425 X-1.0581 Y0.1361
N2430 X-1.0969 Y0.1394
N2435 X-1.1359 Y0.1402
N2440 X-1.1749 Y0.1383
N2445 X-1.2136 Y0.1339
N2450 X-1.252 Y0.1269
N2455 X-1.2898 Y0.1174
N2460 X-1.3269 Y0.1056
N2465 X-1.3632 Y0.0914
N2470 X-1.3986 Y0.0749
N2475 X-1.4328 Y0.0562
N2480 X-1.4656 Y0.0352
N2485 X-1.4971 Y0.0122
N2490 X-1.527 Y-0.0129
N2495 X-1.5553 Y-0.0397
N2500 X-1.5612 Y-0.0461
N2505 X-1.5705 Y-0.0578
N2510 X-1.578 Y-0.0707
N2515 X-1.5835 Y-0.0846
N2520 X-1.5868 Y-0.0992
N2525 X-1.588 Y-0.1141
N2530 Y-0.2677
N2535 G3 X-1.5621 Y-0.2918 I0.025 J0.0009
N2540 G1 X-0.6521 Y-0.2598
N2545 G3 X-0.628 Y-0.2356 I-0.0009 J0.025
N2550 G1 Y-0.0943
N2555 X-0.6286 Y-0.0809
N2560 X-0.6303 Y-0.0683
N2565 X-0.6332 Y-0.0545
N2570 X-0.6381 Y-0.0382
N2575 X-0.6444 Y-0.022
N2580 X-0.6538 Y-0.0026
N2585 X-0.6651 Y0.0165
N2590 X-0.6805 Y0.0384
N2595 X-0.699 Y0.0608
N2600 X-0.7215 Y0.0839
N2605 X-0.7491 Y0.1079
N2610 X-0.7804 Y0.1311
N2615 X-0.8135 Y0.1518
N2620 X-0.8479 Y0.17
N2625 X-0.8835 Y0.1859
N2630 X-0.9201 Y0.1994
N2635 X-0.9575 Y0.2105
N2640 X-0.9954 Y0.2194
N2645 X-1.0339 Y0.2259
N2650 X-1.0726 Y0.2303
N2655 X-1.1116 Y0.2325
N2660 X-1.1505 Y0.2324
N2665 X-1.1895 Y0.23
N2670 X-1.2282 Y0.2253
N2675 X-1.2666 Y0.2185
N2680 X-1.3045 Y0.2095
N2685 X-1.3419 Y0.1984
N2690 X-1.3786 Y0.1853
N2695 X-1.4145 Y0.1702
N2700 X-1.4496 Y0.153
N2705 X-1.4835 Y0.1339
N2710 X-1.5164 Y0.1129
N2715 X-1.548 Y0.0901
N2720 X-1.5511 Y0.0875
N2725 X-1.5618 Y0.0774
N2730 X-1.571 Y0.0658
N2735 X-1.5783 Y0.0529
N2740 X-1.5836 Y0.0391
N2745 X-1.5869 Y0.0247
N2750 X-1.588 Y0.01
N2755 Y-0.1141
N2760 G3 X-1.5624 Y-0.1383 I0.025 J0.0009
N2765 G1 X-0.6524 Y-0.1185
N2770 G3 X-0.628 Y-0.0943 I-0.0005 J0.025
N2775 G1 Y0.0235
N2780 X-0.6285 Y0.0337
N2785 X-0.63 Y0.0452
N2790 X-0.6326 Y0.0574
N2795 X-0.6366 Y0.0709
N2800 X-0.6427 Y0.0865
N2805 X-0.6503 Y0.1021
N2810 X-0.6611 Y0.1205
N2815 X-0.6737 Y0.1385
N2820 X-0.6907 Y0.1589
N2825 X-0.7112 Y0.1799
N2830 X-0.7355 Y0.2011
N2835 X-0.7651 Y0.223
N2840 X-0.7982 Y0.2436
N2845 X-0.8328 Y0.2616
N2850 X-0.8685 Y0.2773
N2855 X-0.9051 Y0.2906
N2860 X-0.9425 Y0.3017
N2865 X-0.9804 Y0.3107
N2870 X-1.0188 Y0.3176
N2875 X-1.0575 Y0.3223
N2880 X-1.0964 Y0.3251
N2885 X-1.1354 Y0.3258
N2890 X-1.1744 Y0.3246
N2895 X-1.2132 Y0.3214
N2900 X-1.2519 Y0.3162
N2905 X-1.2902 Y0.3091
N2910 X-1.3281 Y0.3
N2915 X-1.3656 Y0.2891
N2920 X-1.4024 Y0.2764
N2925 X-1.4386 Y0.2618
N2930 X-1.474 Y0.2455
N2935 X-1.5085 Y0.2274
N2940 X-1.5422 Y0.2077
N2945 X-1.545 Y0.2057
N2950 X-1.5574 Y0.1956
N2955 X-1.568 Y0.1835
N2960 X-1.5766 Y0.17
N2965 X-1.5828 Y0.1552
N2970 X-1.5867 Y0.1396
N2975 X-1.588 Y0.1236
N2980 Y0.01
N2985 G3 X-1.5626 Y-0.0141 I0.025 J0.0009
N2990 G1 X-0.6526 Y-0.0006
N2995 G3 X-0.628 Y0.0235 I-0.0004 J0.025
N3000 G1 Y0.134
N3005 X-0.6283 Y0.1401
N3010 X-0.6296 Y0.1507
N3015 X-0.6321 Y0.162
N3020 X-0.6361 Y0.1754
N3025 X-0.6413 Y0.1887
N3030 X-0.6488 Y0.2043
N3035 X-0.6582 Y0.2202
N3040 X-0.6707 Y0.238
N3045 X-0.6857 Y0.2561
N3050 X-0.7053 Y0.2761
N3055 X-0.7278 Y0.2958
N3060 X-0.7555 Y0.3163
N3065 X-0.7886 Y0.3369
N3070 X-0.8232 Y0.3548
N3075 X-0.859 Y0.3702
N3080 X-0.8957 Y0.3834
N3085 X-0.9331 Y0.3944
N3090 X-0.9711 Y0.4033
N3095 X-1.0095 Y0.4103
N3100 X-1.0481 Y0.4153
N3105 X-1.087 Y0.4183
N3110 X-1.126 Y0.4196
N3115 X-1.165 Y0.419
N3120 X-1.2039 Y0.4166
N3125 X-1.2426 Y0.4125
N3130 X-1.2812 Y0.4066
N3135 X-1.3194 Y0.399
N3140 X-1.3573 Y0.3897
N3145 X-1.3947 Y0.3787
N3150 X-1.4316 Y0.366
N3155 X-1.4678 Y0.3517
N3160 X-1.5035 Y0.3358
N3165 X-1.5345 Y0.32
N3170 X-1.5403 Y0.3165
N3175 X-1.5539 Y0.3064
N3180 X-1.5657 Y0.2942
N3185 X-1.5752 Y0.2801
N3190 X-1.5822 Y0.2647
N3195 X-1.5865 Y0.2482
N3200 X-1.588 Y0.2313
N3205 Y0.1236
N3210 G3 X-1.5627 Y0.0995 I0.025 J0.0009
N3215 G1 X-0.6527 Y0.1099
N3220 G3 X-0.628 Y0.134 I-0.0003 J0.025
N3225 G1 Y0.2356
N3230 X-0.6283 Y0.2423
N3235 X-0.6296 Y0.252
N3240 X-0.632 Y0.2633
N3245 X-0.6356 Y0.2755
N3250 X-0.6408 Y0.2887
N3255 X-0.648 Y0.3036
N3260 X-0.6568 Y0.3186
N3265 X-0.6691 Y0.336
N3270 X-0.683 Y0.3529
N3275 X-0.7015 Y0.3718
N3280 X-0.7236 Y0.391
N3285 X-0.7499 Y0.4105
N3290 X-0.782 Y0.4305
N3295 X-0.8167 Y0.4484
N3300 X-0.8525 Y0.4637
N3305 X-0.8893 Y0.4768
N3310 X-0.9267 Y0.4877
N3315 X-0.9647 Y0.4966
N3320 X-1.003 Y0.5036
N3325 X-1.0417 Y0.5087
N3330 X-1.0805 Y0.512
N3335 X-1.1195 Y0.5136
N3340 X-1.1585 Y0.5135
N3345 X-1.1974 Y0.5117
N3350 X-1.2363 Y0.5084
N3355 X-1.2749 Y0.5034
N3360 X-1.3134 Y0.4969
N3365 X-1.3515 Y0.4888
N3370 X-1.3893 Y0.4791
N3375 X-1.4267 Y0.468
N3380 X-1.4635 Y0.4552
N3385 X-1.4998 Y0.441
N3390 X-1.5296 Y0.4272
N3395 X-1.5373 Y0.4228
N3400 X-1.5498 Y0.4144
N3405 X-1.5609 Y0.4042
N3410 X-1.5703 Y0.3925
N3415 X-1.5779 Y0.3795
N3420 X-1.5834 Y0.3655
N3425 X-1.5868 Y0.3508
N3430 X-1.588 Y0.3358
N3435 Y0.2313
N3440 G3 X-1.5629 Y0.2072 I0.025 J0.0009
N3445 G1 X-0.6528 Y0.2115
N3450 G3 X-0.628 Y0.2356 I-0.0001 J0.025
N3455 G1 Y0.3329
N3460 X-0.6284 Y0.3414
N3465 X-0.6296 Y0.351
N3470 X-0.6321 Y0.3623
N3475 X-0.6355 Y0.3738
N3480 X-0.6406 Y0.387
N3485 X-0.6474 Y0.401
N3490 X-0.6562 Y0.4159
N3495 X-0.6678 Y0.4325
N3500 X-0.6817 Y0.4492
N3505 X-0.6993 Y0.4672
N3510 X-0.7212 Y0.4863
N3515 X-0.7465 Y0.505
N3520 X-0.7778 Y0.5245
N3525 X-0.8125 Y0.5424
N3530 X-0.8483 Y0.5577
N3535 X-0.8851 Y0.5707
N3540 X-0.9225 Y0.5815
N3545 X-0.9605 Y0.5904
N3550 X-0.9989 Y0.5974
N3555 X-1.0375 Y0.6026
N3560 X-1.0763 Y0.6061
N3565 X-1.1153 Y0.608
N3570 X-1.1543 Y0.6082
N3575 X-1.1932 Y0.6069
N3580 X-1.2321 Y0.6041
N3585 X-1.2709 Y0.5998
N3590 X-1.3095 Y0.5941
N3595 X-1.3478 Y0.5869
N3600 X-1.3858 Y0.5783
N3605 X-1.4235 Y0.5683
N3610 X-1.4608 Y0.5569
N3615 X-1.4975 Y0.5438
N3620 X-1.5262 Y0.5314
N3625 X-1.535 Y0.5266
N3630 X-1.5481 Y0.5184
N3635 X-1.5596 Y0.5082
N3640 X-1.5695 Y0.4963
N3645 X-1.5774 Y0.4831
N3650 X-1.5832 Y0.4688
N3655 X-1.5868 Y0.4538
N3660 X-1.588 Y0.4384
N3665 Y0.3358
N3670 G3 X-1.5631 Y0.3117 I0.025 J0.0009
N3675 G1 X-0.653 Y0.3088
N3680 G3 X-0.628 Y0.3329 I0.0001 J0.025
N3685 G1 Y0.4286
N3690 X-0.6285 Y0.4389
N3695 X-0.6297 Y0.4484
N3700 X-0.6321 Y0.4596
N3705 X-0.6355 Y0.4708
N3710 X-0.6406 Y0.484
N3715 X-0.6471 Y0.4975
N3720 X-0.6559 Y0.5124
N3725 X-0.6671 Y0.5283
N3730 X-0.681 Y0.545
N3735 X-0.698 Y0.5625
N3740 X-0.7196 Y0.5813
N3745 X-0.7444 Y0.5997
N3750 X-0.7751 Y0.6188
N3755 X-0.8098 Y0.6367
N3760 X-0.8457 Y0.6519
N3765 X-0.8825 Y0.6648
N3770 X-0.9199 Y0.6756
N3775 X-0.9579 Y0.6845
N3780 X-0.9962 Y0.6915
N3785 X-1.0349 Y0.6968
N3790 X-1.0737 Y0.7005
N3795 X-1.1126 Y0.7025
N3800 X-1.1516 Y0.7031
N3805 X-1.1906 Y0.7021
N3810 X-1.2295 Y0.6998
N3815 X-1.2683 Y0.696
N3820 X-1.307 Y0.6909
N3825 X-1.3454 Y0.6845
N3830 X-1.3836 Y0.6768
N3835 X-1.4216 Y0.6677
N3840 X-1.4591 Y0.6572
N3845 X-1.4962 Y0.645
N3850 X-1.5239 Y0.6336
N3855 X-1.5334 Y0.6287
N3860 X-1.5468 Y0.6205
N3865 X-1.5587 Y0.6103
N3870 X-1.5689 Y0.5983
N3875 X-1.5771 Y0.585
N3880 X-1.5831 Y0.5705
N3885 X-1.5867 Y0.5552
N3890 X-1.588 Y0.5396
N3895 Y0.4384
N3900 G3 X-1.5632 Y0.4143 I0.025 J0.0009
N3905 G1 X-0.6532 Y0.4044
N3910 G3 X-0.628 Y0.4286 I0.0003 J0.025
N3915 G1 Y0.5242
N3920 X-0.6285 Y0.5353
N3925 X-0.6298 Y0.5448
N3930 X-0.6321 Y0.5558
N3935 X-0.6355 Y0.567
N3940 X-0.6406 Y0.5801
N3945 X-0.647 Y0.5933
N3950 X-0.6557 Y0.6082
N3955 X-0.6666 Y0.6237
N3960 X-0.6805 Y0.6404
N3965 X-0.6972 Y0.6575
N3970 X-0.7185 Y0.6761
N3975 X-0.7431 Y0.6943
N3980 X-0.7734 Y0.7132
N3985 X-0.8081 Y0.7311
N3990 X-0.844 Y0.7463
N3995 X-0.8808 Y0.7592
N4000 X-0.9182 Y0.7699
N4005 X-0.9562 Y0.7788
N4010 X-0.9946 Y0.7858
N4015 X-1.0332 Y0.7912
N4020 X-1.072 Y0.795
N4025 X-1.1109 Y0.7973
N4030 X-1.1499 Y0.7981
N4035 X-1.1889 Y0.7975
N4040 X-1.2278 Y0.7955
N4045 X-1.2667 Y0.7923
N4050 X-1.3054 Y0.7877
N4055 X-1.3439 Y0.7819
N4060 X-1.3823 Y0.7748
N4065 X-1.4204 Y0.7665
N4070 X-1.4581 Y0.7567
N4075 X-1.4953 Y0.745
N4080 X-1.5224 Y0.7343
N4085 X-1.5323 Y0.7294
N4090 X-1.5459 Y0.7212
N4095 X-1.5581 Y0.711
N4100 X-1.5685 Y0.6991
N4105 X-1.5768 Y0.6856
N4110 X-1.583 Y0.671
N4115 X-1.5867 Y0.6555
N4120 X-1.588 Y0.6397
N4125 Y0.5396
N4130 G3 X-1.5634 Y0.5155 I0.025 J0.0009
N4135 G1 X-0.6534 Y0.5001
N4140 G3 X-0.628 Y0.5242 I0.0004 J0.025
N4145 G1 Y0.6186
N4150 X-0.6286 Y0.6311
N4155 X-0.6298 Y0.6407
N4160 X-0.6322 Y0.6515
N4165 X-0.6355 Y0.6626
N4170 X-0.6406 Y0.6757
N4175 X-0.6469 Y0.6887
N4180 X-0.6557 Y0.7036
N4185 X-0.6663 Y0.7188
N4190 X-0.6802 Y0.7355
N4195 X-0.6967 Y0.7524
N4200 X-0.7179 Y0.7709
N4205 X-0.7423 Y0.789
N4210 X-0.7724 Y0.8077
N4215 X-0.807 Y0.8256
N4220 X-0.8429 Y0.8408
N4225 X-0.8798 Y0.8537
N4230 X-0.9172 Y0.8644
N4235 X-0.9552 Y0.8733
N4240 X-0.9935 Y0.8804
N4245 X-1.0321 Y0.8859
N4250 X-1.0709 Y0.8898
N4255 X-1.1098 Y0.8923
N4260 X-1.1488 Y0.8933
N4265 X-1.1878 Y0.893
N4270 X-1.2268 Y0.8914
N4275 X-1.2656 Y0.8885
N4280 X-1.3044 Y0.8844
N4285 X-1.3431 Y0.8791
N4290 X-1.3815 Y0.8726
N4295 X-1.4197 Y0.8648
N4300 X-1.4576 Y0.8555
N4305 X-1.4949 Y0.8443
N4310 X-1.5215 Y0.834
N4315 X-1.5315 Y0.8291
N4320 X-1.5453 Y0.821
N4325 X-1.5576 Y0.8108
N4330 X-1.5682 Y0.7988
N4335 X-1.5767 Y0.7853
N4340 X-1.5829 Y0.7706
N4345 X-1.5867 Y0.755
N4350 X-1.588 Y0.7391
N4355 Y0.6397
N4360 G3 X-1.5636 Y0.6156 I0.025 J0.0009
N4365 G1 X-0.6535 Y0.5944
N4370 G3 X-0.628 Y0.6186 I0.0006 J0.025
N4375 G1 Y0.7158
N4380 X-0.6285 Y0.7264
N4385 X-0.6297 Y0.7359
N4390 X-0.632 Y0.7467
N4395 X-0.6354 Y0.7578
N4400 X-0.6404 Y0.7708
N4405 X-0.6467 Y0.7837
N4410 X-0.6555 Y0.7987
N4415 X-0.6661 Y0.8137
N4420 X-0.6799 Y0.8304
N4425 X-0.6963 Y0.8472
N4430 X-0.7174 Y0.8656
N4435 X-0.7418 Y0.8836
N4440 X-0.7717 Y0.9023
N4445 X-0.8064 Y0.9202
N4450 X-0.8423 Y0.9354
N4455 X-0.8791 Y0.9482
N4460 X-0.9166 Y0.959
N4465 X-0.9545 Y0.9679
N4470 X-0.9929 Y0.9751
N4475 X-1.0315 Y0.9807
N4480 X-1.0702 Y0.9847
N4485 X-1.1091 Y0.9874
N4490 X-1.1481 Y0.9886
N4495 X-1.1871
N4500 X-1.2261 Y0.9873
N4505 X-1.265 Y0.9848
N4510 X-1.3038 Y0.9811
N4515 X-1.3425 Y0.9762
N4520 X-1.381 Y0.9701
N4525 X-1.4193 Y0.9627
N4530 X-1.4572 Y0.9539
N4535 X-1.4945 Y0.943
N4540 X-1.5207 Y0.933
N4545 X-1.5309 Y0.9282
N4550 X-1.5448 Y0.9201
N4555 X-1.5573 Y0.91
N4560 X-1.5679 Y0.8979
N4565 X-1.5765 Y0.8843
N4570 X-1.5828 Y0.8695
N4575 X-1.5867 Y0.8539
N4580 X-1.588 Y0.8379
N4585 Y0.7391
N4590 G3 X-1.5636 Y0.715 I0.025 J0.0009
N4595 G1 X-0.6536 Y0.6917
N4600 G3 X-0.628 Y0.7158 I0.0006 J0.025
N4605 G1 Y0.8115
N4610 X-0.6285 Y0.8215
N4615 X-0.6297 Y0.831
N4620 X-0.632 Y0.8417
N4625 X-0.6353 Y0.8528
N4630 X-0.6404 Y0.8658
N4635 X-0.6466 Y0.8787
N4640 X-0.6554 Y0.8936
N4645 X-0.6659 Y0.9086
N4650 X-0.6798 Y0.9253
N4655 X-0.6961 Y0.942
N4660 X-0.7171 Y0.9603
N4665 X-0.7415 Y0.9783
N4670 X-0.7714 Y0.997
N4675 X-0.8061 Y1.0148
N4680 X-0.842 Y1.0301
N4685 X-0.8788 Y1.0429
N4690 X-0.9162 Y1.0537
N4695 X-0.9542 Y1.0627
N4700 X-0.9925 Y1.0699
N4705 X-1.0311 Y1.0756
N4710 X-1.0698 Y1.0798
N4715 X-1.1087 Y1.0826
N4720 X-1.1477 Y1.0841
N4725 X-1.1867 Y1.0843
N4730 X-1.2257 Y1.0832
N4735 X-1.2646 Y1.081
N4740 X-1.3034 Y1.0777
N4745 X-1.3422 Y1.0732
N4750 X-1.3807 Y1.0675
N4755 X-1.4191 Y1.0604
N4760 X-1.4571 Y1.0519
N4765 X-1.4937 Y1.0415
N4770 X-1.5198 Y1.0317
N4775 X-1.5303 Y1.0268
N4780 X-1.5444 Y1.0188
N4785 X-1.5569 Y1.0086
N4790 X-1.5677 Y0.9965
N4795 X-1.5764 Y0.9829
N4800 X-1.5828 Y0.968
N4805 X-1.5866 Y0.9523
N4810 X-1.588 Y0.9362
N4815 Y0.8379
N4820 G3 X-1.5637 Y0.8138 I0.025 J0.0009
N4825 G1 X-0.6537 Y0.7874
N4830 G3 X-0.628 Y0.8115 I0.0007 J0.025
N4835 G1 Y0.9071
N4840 X-0.6284 Y0.9164
N4845 X-0.6297 Y0.9259
N4850 X-0.6319 Y0.9366
N4855 X-0.6353 Y0.9477
N4860 X-0.6403 Y0.9607
N4865 X-0.6466 Y0.9735
N4870 X-0.6554 Y0.9885
N4875 X-0.6658 Y1.0034
N4880 X-0.6797 Y1.0201
N4885 X-0.6959 Y1.0367
N4890 X-0.7169 Y1.055
N4895 X-0.7414 Y1.0731
N4900 X-0.7713 Y1.0917
N4905 X-0.806 Y1.1096
N4910 X-0.8419 Y1.1248
N4915 X-0.8786 Y1.1377
N4920 X-0.9161 Y1.1486
N4925 X-0.954 Y1.1576
N4930 X-0.9923 Y1.1649
N4935 X-1.0309 Y1.1706
N4940 X-1.0697 Y1.175
N4945 X-1.1085 Y1.1779
N4950 X-1.1475 Y1.1796
N4955 X-1.1865 Y1.18
N4960 X-1.2255 Y1.1793
N4965 X-1.2644 Y1.1774
N4970 X-1.3033 Y1.1743
N4975 X-1.342 Y1.1701
N4980 X-1.3806 Y1.1647
N4985 X-1.419 Y1.1579
N4990 X-1.4571 Y1.1496
N4995 X-1.4932 Y1.1395
N5000 X-1.5192 Y1.1299
N5005 X-1.5299 Y1.125
N5010 X-1.544 Y1.117
N5015 X-1.5567 Y1.1068
N5020 X-1.5675 Y1.0947
N5025 X-1.5763 Y1.0811
N5030 X-1.5827 Y1.0661
N5035 X-1.5866 Y1.0504
N5040 X-1.588 Y1.0342
N5045 Y0.9362
N5050 G3 X-1.5638 Y0.9121 I0.025 J0.0009
N5055 G1 X-0.6537 Y0.883
N5060 G3 X-0.628 Y0.9071 I0.0008 J0.025
N5065 G1 Y1.0015
N5070 X-0.6284 Y1.0113
N5075 X-0.6297 Y1.0208
N5080 X-0.632 Y1.0315
N5085 X-0.6353 Y1.0426
N5090 X-0.6404 Y1.0555
N5095 X-0.6466 Y1.0684
N5100 X-0.6554 Y1.0833
N5105 X-0.6658 Y1.0982
N5110 X-0.6797 Y1.1149
N5115 X-0.6959 Y1.1316
N5120 X-0.7169 Y1.1499
N5125 X-0.7414 Y1.168
N5130 X-0.7714 Y1.1866
N5135 X-0.806 Y1.2045
N5140 X-0.8419 Y1.2197
N5145 X-0.8787 Y1.2327
N5150 X-0.9162 Y1.2435
N5155 X-0.9541 Y1.2526
N5160 X-0.9924 Y1.26
N5165 X-1.0309 Y1.2658
N5170 X-1.0696 Y1.2703
N5175 X-1.1085 Y1.2734
N5180 X-1.1475 Y1.2753
N5185 X-1.1864 Y1.2759
N5190 X-1.2254 Y1.2754
N5195 X-1.2644 Y1.2737
N5200 X-1.3033 Y1.2709
N5205 X-1.3421 Y1.2669
N5210 X-1.3807 Y1.2617
N5215 X-1.4191 Y1.2552
N5220 X-1.4573 Y1.247
N5225 X-1.4929 Y1.2372
N5230 X-1.5188 Y1.2278
N5235 X-1.5296 Y1.2228
N5240 X-1.5438 Y1.2149
N5245 X-1.5565 Y1.2047
N5250 X-1.5674 Y1.1926
N5255 X-1.5762 Y1.1789
N5260 X-1.5827 Y1.164
N5265 X-1.5866 Y1.1482
N5270 X-1.588 Y1.1319
N5275 Y1.0342
N5280 G3 X-1.5639 Y1.0101 I0.025 J0.0009
N5285 G1 X-0.6538 Y0.9774
N5290 G3 X-0.628 Y1.0015 I0.0009 J0.025
N5295 G1 Y1.0987
N5300 X-0.6283 Y1.106
N5305 X-0.6296 Y1.1156
N5310 X-0.6318 Y1.1262
N5315 X-0.6352 Y1.1373
N5320 X-0.6402 Y1.1503
N5325 X-0.6465 Y1.1632
N5330 X-0.6553 Y1.1781
N5335 X-0.6657 Y1.193
N5340 X-0.6796 Y1.2097
N5345 X-0.6959 Y1.2264
N5350 X-0.7169 Y1.2447
N5355 X-0.7414 Y1.2629
N5360 X-0.7715 Y1.2816
N5365 X-0.8062 Y1.2995
N5370 X-0.836 Y1.3121
N5375 X-0.8486 Y1.3165
N5380 X-0.8617 Y1.3192
N5385 X-0.8751 Y1.3201
N5390 G3 X-0.8908 Y1.2764 I0.0009 J-0.025
N5395 G1 X-0.6695 Y1.0809
N5400 G3 X-0.628 Y1.0987 I0.0166 J0.0187
N5405 G1 Y1.1944
N5410 X-0.6283 Y1.2009
N5415 X-0.6295 Y1.2104
N5420 X-0.6318 Y1.2211
N5425 X-0.6351 Y1.2322
N5430 X-0.6402 Y1.2452
N5435 X-0.6464 Y1.258
N5440 X-0.6552 Y1.273
N5445 X-0.6585 Y1.2776
N5450 X-0.6687 Y1.2899
N5455 X-0.6807 Y1.3004
N5460 X-0.6942 Y1.3088
N5465 X-0.7089 Y1.315
N5470 X-0.7244 Y1.3188
N5475 X-0.7403 Y1.3201
N5480 G3 X-0.7583 Y1.2787 I0.0009 J-0.025
N5485 G1 X-0.6718 Y1.1789
N5490 G3 X-0.628 Y1.1944 I0.0189 J0.0164
N5495 G1 Y1.2077
N5500 Y1.2224
N5505 X-0.6296 Y1.2371
N5510 X-0.6334 Y1.2518
N5515 X-0.6398 Y1.2666
N5520 X-0.648 Y1.2795
N5525 X-0.6548 Y1.2877
N5530 X-0.6634 Y1.296
N5535 X-0.6775 Y1.3061
N5540 X-0.6922 Y1.3133
N5545 X-0.7069 Y1.3178
N5550 X-0.7216 Y1.3199
N5555 X-0.7364 Y1.3201
N5560 X-1.4433
N5565 X-1.4739 Y1.3186
N5570 X-1.4939 Y1.3159
N5575 X-1.5118 Y1.3121
N5580 X-1.5185 Y1.3101
N5585 X-1.5346 Y1.3037
N5590 X-1.5494 Y1.2946
N5595 X-1.5623 Y1.2831
N5600 X-1.5731 Y1.2696
N5605 X-1.5814 Y1.2543
N5610 G3 X-1.5481 Y1.2222 I0.0232 J-0.0092
N5615 G1 X-1.4341 Y1.2722
N5620 G3 X-1.4433 Y1.3201 I-0.01 J0.0229
N5625 G1 X-1.4728
N5630 X-1.5022 Y1.319
N5635 X-1.5169 Y1.3157
N5640 X-1.5317 Y1.3098
N5645 X-1.5421 Y1.3039
N5650 X-1.5526 Y1.296
N5655 X-1.5611 Y1.2878
N5660 X-1.5696 Y1.2772
N5665 X-1.5761 Y1.2666
N5670 X-1.5825 Y1.2518
N5675 X-1.5864 Y1.2371
N5680 X-1.5879 Y1.2224
N5685 X-1.588 Y1.2077
N5690 Y1.1319
N5695 G3 X-1.5703 Y1.1089 I0.025 J0.0009
N5700 G1 X-1.5666 Y1.1077 Z-0.2697
N5705 X-1.563 Y1.1066 Z-0.2688
N5710 X-1.5595 Y1.1056 Z-0.2673
N5715 X-1.5563 Y1.1046 Z-0.2652
N5720 X-1.5534 Y1.1037 Z-0.2627
N5725 X-1.551 Y1.1029 Z-0.2597
N5730 X-1.5491 Y1.1023 Z-0.2563
N5735 X-1.5476 Y1.1019 Z-0.2527
N5740 X-1.5467 Y1.1016 Z-0.2489
N5745 X-1.5464 Y1.1015 Z-0.245
N5750 G0 Z0.6
N5755 G28 G91 Z0
N5760 G90
N5765 G28 G91 X0 Y0
N5770 G90
N5775 M30
%
